public/badges/youtube.svg

<svg width="141" height="46" viewBox="0 0 141 46" fill="none" xmlns="http://www.w3.org/2000/svg">
<rect x="0.985229" y="0.664673" width="139" height="44" rx="22" fill="white" stroke="#212121"/>
<path d="M68.1646 12.1938L65.8111 18.6733H64.8492L67.5592 11.564H68.1793L68.1646 12.1938ZM70.1373 18.6733L67.7789 12.1938L67.7642 11.564H68.3844L71.1041 18.6733H70.1373ZM70.0152 16.0415V16.813H66.0211V16.0415H70.0152Z" fill="#212121"/>
<path d="M73.2818 17.8579L74.7271 13.3901H75.65L73.7506 18.6733H73.1451L73.2818 17.8579ZM72.0758 13.3901L73.565 17.8823L73.6676 18.6733H73.0621L71.148 13.3901H72.0758Z" fill="#212121"/>
<path d="M79.5562 17.77V15.0503C79.5562 14.842 79.5139 14.6613 79.4293 14.5083C79.3479 14.3521 79.2242 14.2316 79.0582 14.147C78.8922 14.0623 78.6871 14.02 78.443 14.02C78.2151 14.02 78.0149 14.0591 77.8424 14.1372C77.6731 14.2153 77.5396 14.3179 77.442 14.4448C77.3476 14.5718 77.3004 14.7085 77.3004 14.855H76.3971C76.3971 14.6662 76.4459 14.479 76.5435 14.2935C76.6412 14.1079 76.7812 13.9403 76.9635 13.7905C77.149 13.6375 77.3704 13.5171 77.6275 13.4292C77.8879 13.3381 78.1777 13.2925 78.4967 13.2925C78.8808 13.2925 79.2193 13.3576 79.5123 13.4878C79.8085 13.618 80.0396 13.8149 80.2057 14.0786C80.3749 14.339 80.4596 14.6662 80.4596 15.0601V17.521C80.4596 17.6968 80.4742 17.884 80.5035 18.0825C80.5361 18.2811 80.5833 18.452 80.6451 18.5952V18.6733H79.7027C79.6572 18.5692 79.6213 18.4308 79.5953 18.2583C79.5693 18.0825 79.5562 17.9198 79.5562 17.77ZM79.7125 15.4702L79.7223 16.105H78.8092C78.552 16.105 78.3225 16.1261 78.1207 16.1685C77.9189 16.2075 77.7496 16.2677 77.6129 16.3491C77.4762 16.4305 77.372 16.533 77.3004 16.6567C77.2288 16.7772 77.193 16.9188 77.193 17.0815C77.193 17.2476 77.2304 17.3989 77.3053 17.5356C77.3801 17.6724 77.4924 17.7814 77.6422 17.8628C77.7952 17.9409 77.9823 17.98 78.2037 17.98C78.4804 17.98 78.7245 17.9214 78.9361 17.8042C79.1477 17.687 79.3154 17.5438 79.4391 17.3745C79.566 17.2052 79.6344 17.0409 79.6441 16.8813L80.0299 17.3159C80.0071 17.4526 79.9452 17.604 79.8443 17.77C79.7434 17.936 79.6083 18.0955 79.4391 18.2485C79.273 18.3983 79.0745 18.5236 78.8433 18.6245C78.6155 18.7222 78.3583 18.771 78.0719 18.771C77.7138 18.771 77.3997 18.701 77.1295 18.561C76.8626 18.4211 76.6542 18.2339 76.5045 17.9995C76.358 17.7619 76.2848 17.4966 76.2848 17.2036C76.2848 16.9204 76.3401 16.6714 76.4508 16.4565C76.5614 16.2384 76.721 16.0578 76.9293 15.9146C77.1376 15.7681 77.3883 15.6574 77.6812 15.5825C77.9742 15.5076 78.3014 15.4702 78.6627 15.4702H79.7125Z" fill="#212121"/>
<path d="M82.8619 13.3901V18.6733H81.9537V13.3901H82.8619ZM81.8853 11.9888C81.8853 11.8423 81.9293 11.7186 82.0172 11.6177C82.1083 11.5168 82.2418 11.4663 82.4176 11.4663C82.5901 11.4663 82.7219 11.5168 82.8131 11.6177C82.9075 11.7186 82.9547 11.8423 82.9547 11.9888C82.9547 12.1287 82.9075 12.2492 82.8131 12.3501C82.7219 12.4478 82.5901 12.4966 82.4176 12.4966C82.2418 12.4966 82.1083 12.4478 82.0172 12.3501C81.9293 12.2492 81.8853 12.1287 81.8853 11.9888Z" fill="#212121"/>
<path d="M85.2935 11.1733V18.6733H84.3853V11.1733H85.2935Z" fill="#212121"/>
<path d="M89.859 17.77V15.0503C89.859 14.842 89.8167 14.6613 89.732 14.5083C89.6506 14.3521 89.5269 14.2316 89.3609 14.147C89.1949 14.0623 88.9898 14.02 88.7457 14.02C88.5178 14.02 88.3176 14.0591 88.1451 14.1372C87.9758 14.2153 87.8424 14.3179 87.7447 14.4448C87.6503 14.5718 87.6031 14.7085 87.6031 14.855H86.6998C86.6998 14.6662 86.7486 14.479 86.8463 14.2935C86.9439 14.1079 87.0839 13.9403 87.2662 13.7905C87.4517 13.6375 87.6731 13.5171 87.9303 13.4292C88.1907 13.3381 88.4804 13.2925 88.7994 13.2925C89.1835 13.2925 89.5221 13.3576 89.815 13.4878C90.1113 13.618 90.3424 13.8149 90.5084 14.0786C90.6777 14.339 90.7623 14.6662 90.7623 15.0601V17.521C90.7623 17.6968 90.7769 17.884 90.8062 18.0825C90.8388 18.2811 90.886 18.452 90.9478 18.5952V18.6733H90.0055C89.9599 18.5692 89.9241 18.4308 89.898 18.2583C89.872 18.0825 89.859 17.9198 89.859 17.77ZM90.0152 15.4702L90.025 16.105H89.1119C88.8547 16.105 88.6253 16.1261 88.4234 16.1685C88.2216 16.2075 88.0523 16.2677 87.9156 16.3491C87.7789 16.4305 87.6747 16.533 87.6031 16.6567C87.5315 16.7772 87.4957 16.9188 87.4957 17.0815C87.4957 17.2476 87.5331 17.3989 87.608 17.5356C87.6829 17.6724 87.7952 17.7814 87.9449 17.8628C88.0979 17.9409 88.2851 17.98 88.5064 17.98C88.7831 17.98 89.0273 17.9214 89.2389 17.8042C89.4504 17.687 89.6181 17.5438 89.7418 17.3745C89.8687 17.2052 89.9371 17.0409 89.9469 16.8813L90.3326 17.3159C90.3098 17.4526 90.248 17.604 90.1471 17.77C90.0461 17.936 89.9111 18.0955 89.7418 18.2485C89.5758 18.3983 89.3772 18.5236 89.1461 18.6245C88.9182 18.7222 88.6611 18.771 88.3746 18.771C88.0165 18.771 87.7024 18.701 87.4322 18.561C87.1653 18.4211 86.957 18.2339 86.8072 17.9995C86.6607 17.7619 86.5875 17.4966 86.5875 17.2036C86.5875 16.9204 86.6428 16.6714 86.7535 16.4565C86.8642 16.2384 87.0237 16.0578 87.232 15.9146C87.4404 15.7681 87.691 15.6574 87.984 15.5825C88.2769 15.5076 88.6041 15.4702 88.9654 15.4702H90.0152Z" fill="#212121"/>
<path d="M92.1783 11.1733H93.0865V17.6479L93.0084 18.6733H92.1783V11.1733ZM96.6558 15.9878V16.0903C96.6558 16.4744 96.6103 16.8309 96.5191 17.1597C96.428 17.4852 96.2945 17.7684 96.1187 18.0093C95.943 18.2502 95.7281 18.4373 95.4742 18.5708C95.2203 18.7043 94.929 18.771 94.6002 18.771C94.2649 18.771 93.9703 18.714 93.7164 18.6001C93.4657 18.4829 93.2542 18.3153 93.0816 18.0972C92.9091 17.8791 92.7708 17.6154 92.6666 17.3062C92.5657 16.9969 92.4957 16.6486 92.4566 16.2612V15.812C92.4957 15.4214 92.5657 15.0715 92.6666 14.7622C92.7708 14.453 92.9091 14.1893 93.0816 13.9712C93.2542 13.7498 93.4657 13.5822 93.7164 13.4683C93.967 13.3511 94.2584 13.2925 94.5904 13.2925C94.9225 13.2925 95.217 13.3576 95.4742 13.4878C95.7314 13.6147 95.9462 13.797 96.1187 14.0347C96.2945 14.2723 96.428 14.5571 96.5191 14.8892C96.6103 15.2179 96.6558 15.5841 96.6558 15.9878ZM95.7476 16.0903V15.9878C95.7476 15.7241 95.7232 15.4767 95.6744 15.2456C95.6256 15.0112 95.5475 14.8062 95.44 14.6304C95.3326 14.4513 95.191 14.3114 95.0152 14.2104C94.8394 14.1063 94.623 14.0542 94.3658 14.0542C94.1379 14.0542 93.9394 14.0933 93.7701 14.1714C93.6041 14.2495 93.4625 14.3553 93.3453 14.4888C93.2281 14.619 93.1321 14.7687 93.0572 14.938C92.9856 15.104 92.9319 15.2765 92.8961 15.4556V16.6323C92.9482 16.8602 93.0328 17.0799 93.15 17.2915C93.2704 17.4998 93.4299 17.6707 93.6285 17.8042C93.8303 17.9377 94.0794 18.0044 94.3756 18.0044C94.6197 18.0044 94.828 17.9556 95.0006 17.8579C95.1764 17.757 95.318 17.6187 95.4254 17.4429C95.5361 17.2671 95.6174 17.0636 95.6695 16.8325C95.7216 16.6014 95.7476 16.354 95.7476 16.0903Z" fill="#212121"/>
<path d="M98.7799 11.1733V18.6733H97.8717V11.1733H98.7799Z" fill="#212121"/>
<path d="M102.422 18.771C102.055 18.771 101.721 18.7091 101.421 18.5854C101.125 18.4585 100.87 18.2811 100.655 18.0532C100.443 17.8254 100.281 17.5552 100.167 17.2427C100.053 16.9302 99.9957 16.5884 99.9957 16.2173V16.0122C99.9957 15.5825 100.059 15.2 100.186 14.8647C100.313 14.5262 100.486 14.2397 100.704 14.0054C100.922 13.771 101.169 13.5936 101.446 13.4731C101.723 13.3527 102.009 13.2925 102.305 13.2925C102.683 13.2925 103.008 13.3576 103.282 13.4878C103.559 13.618 103.785 13.8003 103.961 14.0347C104.136 14.2658 104.267 14.5392 104.351 14.855C104.436 15.1675 104.478 15.5093 104.478 15.8804V16.2856H100.533V15.5483H103.575V15.48C103.562 15.2456 103.513 15.0177 103.428 14.7964C103.347 14.575 103.217 14.3927 103.038 14.2495C102.859 14.1063 102.615 14.0347 102.305 14.0347C102.1 14.0347 101.911 14.0786 101.739 14.1665C101.566 14.2511 101.418 14.3781 101.295 14.5474C101.171 14.7166 101.075 14.9233 101.006 15.1675C100.938 15.4116 100.904 15.6932 100.904 16.0122V16.2173C100.904 16.4679 100.938 16.7039 101.006 16.9253C101.078 17.1434 101.181 17.3354 101.314 17.5015C101.451 17.6675 101.615 17.7977 101.807 17.8921C102.003 17.9865 102.224 18.0337 102.471 18.0337C102.79 18.0337 103.06 17.9686 103.282 17.8384C103.503 17.7082 103.697 17.534 103.863 17.3159L104.41 17.7505C104.296 17.923 104.151 18.0874 103.975 18.2437C103.799 18.3999 103.583 18.5269 103.326 18.6245C103.072 18.7222 102.771 18.771 102.422 18.771Z" fill="#212121"/>
<path d="M107.774 16.0903V15.978C107.774 15.5972 107.829 15.244 107.94 14.9185C108.051 14.5897 108.21 14.3049 108.419 14.064C108.627 13.8198 108.879 13.631 109.175 13.4976C109.472 13.3608 109.804 13.2925 110.171 13.2925C110.543 13.2925 110.876 13.3608 111.172 13.4976C111.472 13.631 111.726 13.8198 111.934 14.064C112.146 14.3049 112.307 14.5897 112.418 14.9185C112.528 15.244 112.584 15.5972 112.584 15.978V16.0903C112.584 16.4712 112.528 16.8244 112.418 17.1499C112.307 17.4754 112.146 17.7603 111.934 18.0044C111.726 18.2453 111.474 18.4341 111.177 18.5708C110.884 18.7043 110.552 18.771 110.181 18.771C109.81 18.771 109.476 18.7043 109.18 18.5708C108.884 18.4341 108.63 18.2453 108.419 18.0044C108.21 17.7603 108.051 17.4754 107.94 17.1499C107.829 16.8244 107.774 16.4712 107.774 16.0903ZM108.677 15.978V16.0903C108.677 16.354 108.708 16.603 108.77 16.8374C108.832 17.0685 108.925 17.2736 109.048 17.4526C109.175 17.6317 109.333 17.7733 109.522 17.8774C109.711 17.9784 109.931 18.0288 110.181 18.0288C110.429 18.0288 110.645 17.9784 110.831 17.8774C111.019 17.7733 111.176 17.6317 111.299 17.4526C111.423 17.2736 111.516 17.0685 111.578 16.8374C111.643 16.603 111.675 16.354 111.675 16.0903V15.978C111.675 15.7176 111.643 15.4718 111.578 15.2407C111.516 15.0063 111.421 14.7996 111.295 14.6206C111.171 14.4383 111.015 14.2951 110.826 14.1909C110.64 14.0868 110.422 14.0347 110.171 14.0347C109.924 14.0347 109.706 14.0868 109.517 14.1909C109.332 14.2951 109.175 14.4383 109.048 14.6206C108.925 14.7996 108.832 15.0063 108.77 15.2407C108.708 15.4718 108.677 15.7176 108.677 15.978Z" fill="#212121"/>
<path d="M114.62 14.5181V18.6733H113.716V13.3901H114.571L114.62 14.5181ZM114.405 15.8315L114.029 15.8169C114.032 15.4556 114.086 15.1219 114.19 14.8159C114.294 14.5067 114.441 14.2381 114.629 14.0103C114.818 13.7824 115.043 13.6066 115.303 13.4829C115.567 13.356 115.858 13.2925 116.177 13.2925C116.438 13.2925 116.672 13.3283 116.88 13.3999C117.089 13.4683 117.266 13.5789 117.413 13.7319C117.562 13.8849 117.676 14.0835 117.754 14.3276C117.833 14.5685 117.872 14.8631 117.872 15.2114V18.6733H116.963V15.2017C116.963 14.925 116.923 14.7036 116.841 14.5376C116.76 14.3683 116.641 14.2463 116.485 14.1714C116.329 14.0933 116.137 14.0542 115.909 14.0542C115.684 14.0542 115.479 14.1014 115.294 14.1958C115.111 14.2902 114.953 14.4204 114.82 14.5864C114.69 14.7524 114.587 14.9429 114.512 15.1577C114.441 15.3693 114.405 15.5939 114.405 15.8315Z" fill="#212121"/>
<path d="M68.4036 33.916V29.836L64.7716 23.02H66.6916L69.3316 28.108L72.0516 23.02H73.9076L70.2596 29.836L70.2436 33.916H68.4036Z" fill="#212121"/>
<path d="M76.9817 34.156C75.8617 34.156 74.9977 33.8093 74.3897 33.116C73.7817 32.4227 73.4777 31.4467 73.4777 30.188C73.4777 28.94 73.7817 27.9693 74.3897 27.276C74.9977 26.5827 75.8617 26.236 76.9817 26.236C78.1017 26.236 78.9657 26.5827 79.5737 27.276C80.1817 27.9693 80.4857 28.94 80.4857 30.188C80.4857 31.4467 80.1817 32.4227 79.5737 33.116C78.9657 33.8093 78.1017 34.156 76.9817 34.156ZM76.9817 32.668C77.5471 32.668 77.9844 32.4547 78.2937 32.028C78.6031 31.6013 78.7577 30.988 78.7577 30.188C78.7577 29.42 78.6031 28.8173 78.2937 28.38C77.9844 27.9427 77.5471 27.724 76.9817 27.724C76.4164 27.724 75.9791 27.9427 75.6697 28.38C75.3604 28.8173 75.2057 29.42 75.2057 30.188C75.2057 30.988 75.3604 31.6013 75.6697 32.028C75.9791 32.4547 76.4164 32.668 76.9817 32.668Z" fill="#212121"/>
<path d="M84.8372 34.14C83.9839 34.14 83.3119 33.8787 82.8212 33.356C82.3412 32.8333 82.1012 32.0653 82.1012 31.052V26.476H83.8292V30.668C83.8292 31.02 83.8612 31.34 83.9252 31.628C83.9999 31.9053 84.1332 32.1293 84.3252 32.3C84.5172 32.4707 84.8052 32.556 85.1892 32.556C85.6799 32.556 86.0639 32.396 86.3412 32.076C86.6186 31.7453 86.7572 31.2387 86.7572 30.556V26.476H88.4852V33.916H86.9332V33.116C86.4319 33.7987 85.7332 34.14 84.8372 34.14Z" fill="#212121"/>
<path d="M92.0626 33.916V24.668H88.7186V23.02H97.5346L96.9906 24.668H93.9186V33.916H92.0626Z" fill="#212121"/>
<path d="M100.068 34.14C99.2151 34.14 98.5431 33.8787 98.0525 33.356C97.5725 32.8333 97.3325 32.0653 97.3325 31.052V26.476H99.0605V30.668C99.0605 31.02 99.0925 31.34 99.1565 31.628C99.2311 31.9053 99.3645 32.1293 99.5565 32.3C99.7485 32.4707 100.036 32.556 100.42 32.556C100.911 32.556 101.295 32.396 101.572 32.076C101.85 31.7453 101.988 31.2387 101.988 30.556V26.476H103.716V33.916H102.164V33.116C101.663 33.7987 100.964 34.14 100.068 34.14Z" fill="#212121"/>
<path d="M109.806 34.14C108.9 34.14 108.185 33.8147 107.662 33.164V33.916H106.03V23.02H107.758V27.116C108.292 26.54 108.974 26.252 109.806 26.252C110.798 26.252 111.572 26.5987 112.126 27.292C112.692 27.9747 112.974 28.94 112.974 30.188C112.974 31.4467 112.692 32.4227 112.126 33.116C111.561 33.7987 110.788 34.14 109.806 34.14ZM109.502 32.668C110.057 32.668 110.484 32.46 110.782 32.044C111.092 31.6173 111.246 30.9987 111.246 30.188C111.246 29.4307 111.092 28.8333 110.782 28.396C110.484 27.948 110.057 27.724 109.502 27.724C108.937 27.724 108.505 27.9427 108.206 28.38C107.908 28.8173 107.758 29.42 107.758 30.188C107.758 30.988 107.908 31.6013 108.206 32.028C108.505 32.4547 108.937 32.668 109.502 32.668Z" fill="#212121"/>
<path d="M117.81 34.14C116.69 34.14 115.821 33.7933 115.202 33.1C114.584 32.4067 114.274 31.4573 114.274 30.252C114.274 29.4627 114.402 28.7693 114.658 28.172C114.925 27.5747 115.309 27.1053 115.81 26.764C116.322 26.4227 116.941 26.252 117.666 26.252C118.733 26.252 119.538 26.5987 120.082 27.292C120.637 27.9747 120.914 28.8813 120.914 30.012C120.914 30.1507 120.904 30.2787 120.882 30.396C120.872 30.5133 120.856 30.636 120.834 30.764H115.954C116.018 31.4573 116.232 31.9587 116.594 32.268C116.957 32.5667 117.432 32.716 118.018 32.716C118.349 32.716 118.637 32.668 118.882 32.572C119.138 32.4653 119.421 32.2787 119.73 32.012L120.61 33.1C120.205 33.4627 119.778 33.7293 119.33 33.9C118.882 34.06 118.376 34.14 117.81 34.14ZM117.682 27.676C117.17 27.676 116.77 27.8467 116.482 28.188C116.194 28.5293 116.018 28.9987 115.954 29.596H119.394C119.362 28.988 119.202 28.5187 118.914 28.188C118.626 27.8467 118.216 27.676 117.682 27.676Z" fill="#212121"/>
<path d="M38.4003 35.5197C38.4003 35.5197 49.9055 35.5197 52.7593 34.7484C54.3662 34.3113 55.5746 33.0515 55.9988 31.496C56.783 28.6422 56.783 22.639 56.783 22.639C56.783 22.639 56.783 16.6743 55.9988 13.8462C55.5746 12.2521 54.3662 11.0181 52.7593 10.5938C49.9055 9.80969 38.4003 9.80969 38.4003 9.80969C38.4003 9.80969 26.9208 9.80969 24.0799 10.5938C22.4987 11.0181 21.2646 12.2521 20.8147 13.8462C20.0563 16.6743 20.0563 22.639 20.0563 22.639C20.0563 22.639 20.0563 28.6422 20.8147 31.496C21.2646 33.0515 22.4987 34.3113 24.0799 34.7484C26.9208 35.5197 38.4003 35.5197 38.4003 35.5197Z" fill="#FF0000"/>
<path d="M44.2759 22.639L34.7504 17.15V28.1667L44.2759 22.639Z" fill="white"/>
</svg>

<svg xmlns="http://www.w3.org/2000/svg" width="141" height="46" fill="none" viewBox="0 0 141 46"><rect width="139" height="44" x=".985" y=".665" fill="#fff" stroke="#212121" rx="22"/><path fill="#212121" d="m68.165 12.194-2.354 6.48h-.962l2.71-7.11h.62zm1.972 6.48-2.358-6.48-.015-.63h.62l2.72 7.11zm-.122-2.633v.772h-3.994v-.771zm3.267 1.817 1.445-4.468h.923l-1.9 5.283h-.605zm-1.206-4.468 1.489 4.492.103.791h-.606l-1.914-5.283zm7.48 4.38v-2.72q0-.312-.127-.542a.83.83 0 0 0-.37-.361 1.34 1.34 0 0 0-.616-.127q-.342 0-.6.117-.254.117-.401.308a.67.67 0 0 0-.142.41h-.903q0-.283.146-.562.147-.278.42-.502.278-.23.665-.362.39-.135.869-.136.576 0 1.015.195.445.195.694.59.254.391.254.982v2.461q0 .264.044.561.049.3.141.513v.078h-.942a1.7 1.7 0 0 1-.108-.415 3.4 3.4 0 0 1-.039-.488m.157-2.3.01.635h-.914q-.385 0-.688.064-.303.058-.508.18a.82.82 0 0 0-.42.732.93.93 0 0 0 .112.455.8.8 0 0 0 .337.327q.23.117.562.117.414 0 .732-.176.318-.175.503-.43a.93.93 0 0 0 .205-.493l.386.435a1.3 1.3 0 0 1-.186.454 2.17 2.17 0 0 1-1 .855 1.9 1.9 0 0 1-.772.146 2 2 0 0 1-.943-.21 1.6 1.6 0 0 1-.625-.561 1.5 1.5 0 0 1-.22-.796q0-.426.167-.748.165-.327.478-.541.314-.22.752-.332.44-.113.982-.113zm3.149-2.08v5.283h-.908V13.39zm-.977-1.401q0-.22.132-.371.137-.152.4-.152.26 0 .396.152.141.15.142.37a.5.5 0 0 1-.142.362q-.137.147-.395.147-.264 0-.4-.147a.53.53 0 0 1-.133-.361m3.409-.816v7.5h-.909v-7.5zm4.565 6.597v-2.72q0-.312-.127-.542a.83.83 0 0 0-.371-.361 1.34 1.34 0 0 0-.615-.127q-.342 0-.6.117-.255.117-.401.308a.67.67 0 0 0-.142.41H86.7q0-.283.146-.562.147-.278.42-.502.279-.23.664-.362.39-.135.87-.136.575 0 1.015.195.444.195.693.59.254.391.254.982v2.461q0 .264.044.561.05.3.142.513v.078h-.942a1.7 1.7 0 0 1-.108-.415 3.4 3.4 0 0 1-.039-.488m.156-2.3.01.635h-.913q-.386 0-.689.064-.302.058-.507.18a.82.82 0 0 0-.42.732.93.93 0 0 0 .112.455.8.8 0 0 0 .337.327q.23.117.561.117.415 0 .733-.176.317-.175.503-.43a.93.93 0 0 0 .205-.493l.386.435a1.3 1.3 0 0 1-.186.454 2.17 2.17 0 0 1-1 .855 1.9 1.9 0 0 1-.772.146 2 2 0 0 1-.943-.21 1.6 1.6 0 0 1-.625-.561 1.5 1.5 0 0 1-.22-.796q0-.426.166-.748.166-.327.479-.541.312-.22.752-.332t.981-.113zm2.163-4.297h.909v6.475l-.079 1.025h-.83zm4.478 4.815v.102q0 .575-.137 1.07a2.6 2.6 0 0 1-.4.85q-.263.36-.645.56a1.85 1.85 0 0 1-.874.201q-.503 0-.884-.17a1.74 1.74 0 0 1-.634-.504 2.6 2.6 0 0 1-.415-.79q-.152-.465-.21-1.046v-.449q.058-.585.21-1.05.156-.464.415-.79.258-.333.634-.504.376-.175.874-.175t.884.195q.386.19.645.547.263.356.4.854.137.493.137 1.099m-.908.102v-.102q0-.396-.074-.742a1.9 1.9 0 0 0-.234-.616 1.17 1.17 0 0 0-.425-.42 1.25 1.25 0 0 0-.65-.156q-.341 0-.595.117a1.3 1.3 0 0 0-.425.318q-.175.195-.288.449a2.6 2.6 0 0 0-.16.518v1.176q.077.342.253.66.18.312.478.512.303.2.748.2.366 0 .625-.146.263-.152.424-.415.166-.264.245-.61a3.4 3.4 0 0 0 .078-.743m3.032-4.917v7.5h-.908v-7.5zm3.642 7.598q-.55 0-1.001-.186a2.3 2.3 0 0 1-.766-.532 2.4 2.4 0 0 1-.488-.81 3 3 0 0 1-.171-1.026v-.205q0-.645.19-1.147.19-.508.518-.86.327-.35.742-.532.415-.18.859-.18.566 0 .977.195.415.195.679.547.263.345.39.82a4 4 0 0 1 .127 1.025v.406h-3.945v-.738h3.042v-.068a2.2 2.2 0 0 0-.147-.684 1.23 1.23 0 0 0-.39-.546q-.268-.216-.733-.215a1.23 1.23 0 0 0-1.01.512q-.186.255-.289.62a3.2 3.2 0 0 0-.102.845v.205q0 .376.102.708.108.327.308.576.205.25.493.391.294.142.664.142.478 0 .811-.196.332-.195.581-.522l.547.434a2.5 2.5 0 0 1-.435.494 2.1 2.1 0 0 1-.649.38 2.5 2.5 0 0 1-.904.147m5.352-2.681v-.112q0-.57.166-1.06.166-.492.479-.854a2.1 2.1 0 0 1 .756-.566q.446-.205.996-.205.558 0 1.001.205.45.2.762.566.318.361.484.854.165.49.166 1.06v.112q0 .571-.166 1.06-.166.488-.484.854-.312.361-.757.567-.44.2-.996.2a2.4 2.4 0 0 1-1.001-.2 2.3 2.3 0 0 1-.761-.567 2.6 2.6 0 0 1-.479-.854 3.3 3.3 0 0 1-.166-1.06m.903-.112v.112q0 .396.093.747.093.348.278.616.19.268.474.424.284.152.659.152.372 0 .65-.152a1.36 1.36 0 0 0 .468-.424q.186-.269.279-.616.097-.351.097-.747v-.112q0-.39-.097-.737a1.9 1.9 0 0 0-.283-.62 1.35 1.35 0 0 0-.469-.43 1.3 1.3 0 0 0-.655-.156q-.37 0-.654.156a1.4 1.4 0 0 0-.469.43 2 2 0 0 0-.278.62 2.8 2.8 0 0 0-.093.737m5.943-1.46v4.155h-.904V13.39h.855zm-.215 1.313-.376-.014q.005-.542.161-1.001.156-.464.439-.806a1.96 1.96 0 0 1 1.548-.717q.391 0 .703.107.313.102.533.332.224.23.341.596.118.36.118.883v3.462h-.909v-3.471q0-.415-.122-.664a.75.75 0 0 0-.356-.367 1.3 1.3 0 0 0-.576-.117q-.337 0-.615.142a1.5 1.5 0 0 0-.474.39 1.98 1.98 0 0 0-.415 1.245M68.404 33.916v-4.08l-3.632-6.816h1.92l2.64 5.088 2.72-5.088h1.856l-3.648 6.816-.016 4.08zm8.578.24q-1.68 0-2.592-1.04t-.912-2.928q0-1.872.912-2.912t2.592-1.04 2.592 1.04.912 2.912q0 1.888-.912 2.928t-2.592 1.04m0-1.488q.847 0 1.312-.64t.464-1.84q0-1.152-.464-1.808-.465-.656-1.312-.656-.849 0-1.312.656-.465.656-.464 1.808 0 1.2.464 1.84t1.312.64m7.855 1.472q-1.28 0-2.016-.784-.72-.784-.72-2.304v-4.576h1.728v4.192q0 .528.096.96.112.416.4.672.288.255.864.256.736 0 1.152-.48.416-.495.416-1.52v-4.08h1.728v7.44h-1.552v-.8q-.752 1.024-2.096 1.024m7.226-.224v-9.248h-3.344V23.02h8.816l-.544 1.648h-3.072v9.248zm8.005.224q-1.28 0-2.016-.784-.72-.784-.72-2.304v-4.576h1.729v4.192q0 .528.095.96.113.416.4.672.289.255.864.256.736 0 1.152-.48.416-.495.416-1.52v-4.08h1.728v7.44h-1.552v-.8q-.752 1.024-2.096 1.024m9.738 0q-1.36 0-2.144-.976v.752h-1.632V23.02h1.728v4.096q.8-.864 2.048-.864 1.489 0 2.32 1.04.849 1.024.848 2.896 0 1.888-.848 2.928-.847 1.024-2.32 1.024m-.304-1.472q.833 0 1.28-.624.465-.64.464-1.856 0-1.136-.464-1.792-.447-.672-1.28-.672-.848 0-1.296.656t-.448 1.808q0 1.2.448 1.84t1.296.64m8.308 1.472q-1.68 0-2.608-1.04-.927-1.04-.928-2.848 0-1.185.384-2.08a3.3 3.3 0 0 1 1.152-1.408q.768-.512 1.856-.512 1.6 0 2.416 1.04.832 1.025.832 2.72 0 .209-.032.384-.015.176-.048.368h-4.88q.097 1.04.64 1.504.545.448 1.424.448.496 0 .864-.144.384-.16.848-.56l.88 1.088q-.608.545-1.28.8-.671.24-1.52.24m-.128-6.464q-.768 0-1.2.512-.432.511-.528 1.408h3.44q-.048-.912-.48-1.408-.431-.512-1.232-.512"/><path fill="red" d="M38.4 35.52s11.506 0 14.36-.772a4.62 4.62 0 0 0 3.239-3.252c.784-2.854.784-8.857.784-8.857s0-5.965-.784-8.793a4.53 4.53 0 0 0-3.24-3.252C49.906 9.81 38.4 9.81 38.4 9.81s-11.48 0-14.32.784a4.66 4.66 0 0 0-3.265 3.252c-.759 2.828-.759 8.793-.759 8.793s0 6.003.759 8.857c.45 1.555 1.684 2.815 3.265 3.252 2.84.772 14.32.772 14.32.772"/><path fill="#fff" d="M44.276 22.639 34.75 17.15v11.017z"/></svg>
